public/icons/remove.svg

<?xml version="1.0" encoding="utf-8"?><!-- Uploaded to: SVG Repo, www.svgrepo.com, Generator: SVG Repo Mixer Tools -->
<svg width="800px" height="800px" viewBox="0 0 24 24" fill="none" xmlns="http://www.w3.org/2000/svg">
<path d="M3 6.38597C3 5.90152 3.34538 5.50879 3.77143 5.50879L6.43567 5.50832C6.96502 5.49306 7.43202 5.11033 7.61214 4.54412C7.61688 4.52923 7.62232 4.51087 7.64185 4.44424L7.75665 4.05256C7.8269 3.81241 7.8881 3.60318 7.97375 3.41617C8.31209 2.67736 8.93808 2.16432 9.66147 2.03297C9.84457 1.99972 10.0385 1.99986 10.2611 2.00002H13.7391C13.9617 1.99986 14.1556 1.99972 14.3387 2.03297C15.0621 2.16432 15.6881 2.67736 16.0264 3.41617C16.1121 3.60318 16.1733 3.81241 16.2435 4.05256L16.3583 4.44424C16.3778 4.51087 16.3833 4.52923 16.388 4.54412C16.5682 5.11033 17.1278 5.49353 17.6571 5.50879H20.2286C20.6546 5.50879 21 5.90152 21 6.38597C21 6.87043 20.6546 7.26316 20.2286 7.26316H3.77143C3.34538 7.26316 3 6.87043 3 6.38597Z" fill="#FFFFFF"/>
<path fill-rule="evenodd" clip-rule="evenodd" d="M11.5956 22.0001H12.4044C15.1871 22.0001 16.5785 22.0001 17.4831 21.1142C18.3878 20.2283 18.4803 18.7751 18.6654 15.8686L18.9321 11.6807C19.0326 10.1037 19.0828 9.31524 18.6289 8.81558C18.1751 8.31592 17.4087 8.31592 15.876 8.31592H8.12404C6.59127 8.31592 5.82488 8.31592 5.37105 8.81558C4.91722 9.31524 4.96744 10.1037 5.06788 11.6807L5.33459 15.8686C5.5197 18.7751 5.61225 20.2283 6.51689 21.1142C7.42153 22.0001 8.81289 22.0001 11.5956 22.0001ZM10.2463 12.1886C10.2051 11.7548 9.83753 11.4382 9.42537 11.4816C9.01321 11.525 8.71251 11.9119 8.75372 12.3457L9.25372 17.6089C9.29494 18.0427 9.66247 18.3593 10.0746 18.3159C10.4868 18.2725 10.7875 17.8856 10.7463 17.4518L10.2463 12.1886ZM14.5746 11.4816C14.9868 11.525 15.2875 11.9119 15.2463 12.3457L14.7463 17.6089C14.7051 18.0427 14.3375 18.3593 13.9254 18.3159C13.5132 18.2725 13.2125 17.8856 13.2537 17.4518L13.7537 12.1886C13.7949 11.7548 14.1625 11.4382 14.5746 11.4816Z" fill="#FFFFFF"/>
</svg>

<svg xmlns="http://www.w3.org/2000/svg" width="800" height="800" fill="none" viewBox="0 0 24 24"><path fill="#fff" d="M3 6.386c0-.484.345-.877.771-.877h2.665c.529-.016.996-.399 1.176-.965l.03-.1.115-.391c.07-.24.131-.45.217-.637.338-.739.964-1.252 1.687-1.383.184-.033.378-.033.6-.033h3.478c.223 0 .417 0 .6.033.723.131 1.35.644 1.687 1.383.086.187.147.396.218.637l.114.391.03.1c.18.566.74.95 1.27.965h2.57c.427 0 .772.393.772.877s-.345.877-.771.877H3.77C3.345 7.263 3 6.87 3 6.386"/><path fill="#fff" fill-rule="evenodd" d="M11.596 22h.808c2.783 0 4.174 0 5.08-.886.904-.886.996-2.339 1.181-5.245l.267-4.188c.1-1.577.15-2.366-.303-2.865-.454-.5-1.22-.5-2.753-.5H8.124c-1.533 0-2.3 0-2.753.5s-.404 1.288-.303 2.865l.267 4.188c.185 2.906.277 4.36 1.182 5.245.905.886 2.296.886 5.079.886m-1.35-9.811c-.04-.434-.408-.75-.82-.707-.413.043-.713.43-.672.864l.5 5.263c.04.434.408.75.82.707.413-.043.713-.43.672-.864zm4.329-.707c.412.043.713.43.671.864l-.5 5.263c-.04.434-.409.75-.82.707-.413-.043-.713-.43-.672-.864l.5-5.263c.04-.434.409-.75.82-.707" clip-rule="evenodd"/></svg>
